__todo__/vagrant-icon.svg

<svg height="266" preserveAspectRatio="xMidYMid" viewBox="0 0 256 266" width="256" xmlns="http://www.w3.org/2000/svg"><path d="m221.101749 0 34.894527 20.4099019-58.186996 33.8397942-.00028.0403039 58.187276-33.8800981v24.2533251l-78.133037 191.59685-49.887239 28.799923.000049.003662-.003049-.002662-.002473.002662-.000527-.003662-49.4062351-28.579037-78.5637649-191.0667223v-25.0043388l34.9000488-20.4099019 58.2311731 34.1490351-.1992219.1139649.1550447.0627442v23.0605385l34.8890043 81.5954303-.000049 27.260287.005571-.002907v-27.25738l34.933182-81.5954303v-23.2814249h.044177zm-149.522749 46.548-13.386482 7.7016961-.000518.0403039z" fill="#1159cc"/><path d="m221.101749 0-58.142819 34.1048578h-.044177v23.2814249l-34.933182 81.5954303v27.25738l-23.248292 13.518247-46.540761-104.9652102v-20.5424337l34.9387039-20.100661-58.2311731-34.1490351-34.9000488 20.4099019v25.0043388l78.5637649 191.0667223 49.4122841 28.582699v-71.788075l23.292469-13.518247-.309241-.176709 46.850003-104.7885012v-20.5424337l58.186996-33.8397942z" fill="#127eff"/></svg>

<?xml version="1.0" encoding="UTF-8"?>
<svg width="256px" height="266px" viewBox="0 0 256 266" version="1.1" xmlns="http://www.w3.org/2000/svg" xmlns:xlink="http://www.w3.org/1999/xlink" preserveAspectRatio="xMidYMid">
    <g>
        <path d="M221.101749,0 L255.996276,20.4099019 L197.80928,54.2496961 L197.809,54.29 L255.996276,20.4099019 L255.996276,44.663227 L177.863239,236.260077 L127.976,265.06 L127.976049,265.063662 L127.973,265.061 L127.970527,265.063662 L127.97,265.06 L78.5637649,236.480963 L0,45.4142407 L0,20.4099019 L34.9000488,0 L93.1312219,34.1490351 L92.932,34.263 L93.0870447,34.3257442 L93.0870447,57.3862827 L127.976049,138.981713 L127.976,166.242 L127.981571,166.239093 L127.981571,138.981713 L162.914753,57.3862827 L162.914753,34.1048578 L162.95893,34.1048578 L221.101749,0 Z M71.579,46.548 L58.192518,54.2496961 L58.192,54.29 L71.579,46.548 Z" fill="#1159CC"></path>
        <polygon fill="#127EFF" points="221.101749 4.904663e-15 162.95893 34.1048578 162.914753 34.1048578 162.914753 57.3862827 127.981571 138.981713 127.981571 166.239093 104.733279 179.75734 58.192518 74.7921298 58.192518 54.2496961 93.1312219 34.1490351 34.9000488 0 0 20.4099019 0 45.4142407 78.5637649 236.480963 127.976049 265.063662 127.976049 193.275587 151.268518 179.75734 150.959277 179.580631 197.80928 74.7921298 197.80928 54.2496961 255.996276 20.4099019"></polygon>
    </g>
</svg>
